!!!COM: Music21
!!!OTL: Pasodoble
!!!OMV: pezas_pasodobles_pasodoble-20_pasodoble-partitura.musicxml
**kern
*I"Gaita
*I'Bag
*clefG^2
*k[]
*M2/4
*MM150
=1
!LO:TX:a:t=[quarter]=150
8eeL
[8ccJ
4cc]
=
8eeL
[8ccJ
4cc]
=
8eeL
8ccJ
16ddLL
16ee
16dd
16ccJJ
=
8bL
8ccJ
8ddL
8eeJ
=
4.ff
8dd
=
8eeL
[8ccJ
4cc_
=
2cc]
=
8eeL
[8ccJ
4cc]
=
8eeL
[8ccJ
4cc]
=
8eeL
8ccJ
16ddLL
16ee
16dd
16ccJJ
!!linebreak:original
=
8bL
8ccJ
8ddL
8eeJ
=
4.ff
8dd
=
8eeL
[8ccJ
4cc_
=
2cc]
=||
*M2/4
*MM150
!LO:TX:a:t=[quarter]=150
8eeL
[8ccJ
4cc]
=
8eeL
[8ccJ
4cc]
=
8eeL
8ccJ
16ddLL
16ee
16dd
16ccJJ
=
8bL
8ccJ
8ddL
8eeJ
=
4.ff
8dd
=
8eeL
[8ccJ
4cc_
!!linebreak:original
=
2cc]
=
8eeL
[8ccJ
4cc]
=
8eeL
[8ccJ
4cc]
=
8eeL
8ccJ
16ddLL
16ee
16dd
16ccJJ
!!linebreak:original
=
8bL
8ccJ
8ddL
8eeJ
=
4.ff
8dd
=
8eeL
[8ccJ
4cc_
=
4.cc]
8gg
=||
4.ccc
8aa
=
4.bb
8gg
=
8.aaL
16bbJk
16cccLL
16bb
16aa
16ggJJ
=
4.ff
16ggLL
16aaJJ
=
4.bb
8gg
!!linebreak:original
=
4.aa
8ff
=
8ggL
8aaJ
8.eeL
16ddJk
=
4.cc
8gg
=||
4.ccc
8aa
=
4.bb
8gg
=
8.aaL
16bbJk
16cccLL
16bb
16aa
16ggJJ
=
4.ff
16ggLL
16aaJJ
=
4.bb
8gg
!!linebreak:original
=
4.aa
8ff
=
8ggL
8aaJ
8.eeL
16ddJk
=
2cc
==
*-
